X:1
T:Le Petre's -- Hornpipe
R:hornpipe
B:Cole's 1000 Fiddle Tunes
M:2/4
L:1/8
K:D
vf>ug|(3"1"v.a.a.a "4"c'>"2"b|"3"a>g f>a|g>e B>c|d2 e>f|
(3.g.g.g B>g|(3.f.f.f A>f\
|1 e>^de>f|e2 f>g:|2 e>AB>c|d2
vc>d|:(3.e.e.e ^d>"4"e|c>e "3"a>"4"c'|\
(3.e.e.e ^d>e|B>e g>"2"b|
k"4"e'>"0"e k"4"d'>"0"e|k"3"c'"0"e k"2"b>"0"e|\
"2"c>"0"e "4"c'>b|1 a>g f>e:|2 a2|]
